X:1
T:Wallabug
M:4/4
L:1/8
K:D
 AA A2 F2 F2| A2 A F- F4| A2 A2 FF D2| F F3 E4| A A2 A F2 F2| A A3 F3- F/2A/2|\
 A A3 F2 D2| F2 E2 D4| A,A, B,2 DD B,B,| D2 B2 A4| A,2 B,B, D2 B,2|\
 D2 B2 A4| DD EE FF E2| F2 A2 A2 AA| D2 DD DD EE| F2 E2 D4|

